icons/glyphs/glyph-diffuse.svg

<?xml version="1.0" encoding="UTF-8" standalone="no"?><svg height="16" viewBox="0 0 4.2333332 4.2333332" width="16" xmlns="http://www.w3.org/2000/svg"><sodipodi:namedview/><metadata><rdf:RDF><cc:Work><dc:format>image/svg+xml</dc:format><dc:type/><dc:title/></cc:Work></rdf:RDF></metadata><path d="m8 0c-.3775992 0-.7555859.14425774-1.0449219.43359375l-6.52148435 6.52148435c-.57867202.578672-.57867202 1.5111718 0 2.0898438l6.52148435 6.5214841c.578672.578672 1.5111718.578672 2.0898438 0l6.5214841-6.5214841c.578672-.578672.578672-1.5111718 0-2.0898438l-6.5214841-6.52148435c-.289336-.28933601-.6673227-.43359375-1.0449219-.43359375zm.7109375 2.3378906h1.4121095v11.0078124h-1.4121095v-4.9999999l-1.4101563 1.4121094v3.5878905h-1.4121093v-4.1621092h.0097656l-.0097656-.0097657 2.8222656-2.8242187z" fill="#d0d0d0" stroke-width=".6" transform="scale(.26458333)"/></svg>

<?xml version="1.0" encoding="UTF-8" standalone="no"?>
<!-- Created with Inkscape (http://www.inkscape.org/) -->

<svg
   xmlns:dc="http://purl.org/dc/elements/1.1/"
   xmlns:cc="http://creativecommons.org/ns#"
   xmlns:rdf="http://www.w3.org/1999/02/22-rdf-syntax-ns#"
   xmlns:svg="http://www.w3.org/2000/svg"
   xmlns="http://www.w3.org/2000/svg"
   xmlns:sodipodi="http://sodipodi.sourceforge.net/DTD/sodipodi-0.dtd"
   xmlns:inkscape="http://www.inkscape.org/namespaces/inkscape"
   width="16"
   height="16"
   viewBox="0 0 4.2333332 4.2333332"
   version="1.1"
   id="svg8"
   inkscape:version="0.92+devel (f96dc7e339, 2017-07-28, custom)"
   sodipodi:docname="glyph-diffuse.svg">
  <defs
     id="defs2">
    <linearGradient
       id="b"
       y1="34"
       y2="13"
       x2="0"
       gradientUnits="userSpaceOnUse"
       gradientTransform="matrix(0.27136751,0,0,0.27136751,-4.3127939,-3.8802299)">
      <stop
         stop-color="#2a2c2f"
         id="stop7" />
      <stop
         offset="1"
         stop-color="#424649"
         id="stop9" />
    </linearGradient>
  </defs>
  <sodipodi:namedview
     id="base"
     pagecolor="#002466"
     bordercolor="#ffffff"
     borderopacity="0.38039216"
     inkscape:pageopacity="1"
     inkscape:pageshadow="2"
     inkscape:zoom="36.415999"
     inkscape:cx="10.094581"
     inkscape:cy="7.9162778"
     inkscape:document-units="px"
     inkscape:current-layer="svg8"
     inkscape:document-rotation="0"
     showgrid="false"
     inkscape:showpageshadow="false"
     borderlayer="true"
     inkscape:window-width="1920"
     inkscape:window-height="1051"
     inkscape:window-x="0"
     inkscape:window-y="0"
     inkscape:window-maximized="1"
     units="px"
     inkscape:snap-page="true"
     inkscape:snap-grids="false"
     inkscape:snap-to-guides="false" />
  <metadata
     id="metadata5">
    <rdf:RDF>
      <cc:Work
         rdf:about="">
        <dc:format>image/svg+xml</dc:format>
        <dc:type
           rdf:resource="http://purl.org/dc/dcmitype/StillImage" />
        <dc:title></dc:title>
      </cc:Work>
    </rdf:RDF>
  </metadata>
  <path
     style="font-variation-settings:normal;vector-effect:none;fill:#d0d0d0;stroke-width:0.60000002"
     d="M 8 0 C 7.6224008 0 7.2444141 0.14425774 6.9550781 0.43359375 L 0.43359375 6.9550781 C -0.14507827 7.5337501 -0.14507827 8.4662499 0.43359375 9.0449219 L 6.9550781 15.566406 C 7.5337501 16.145078 8.4662499 16.145078 9.0449219 15.566406 L 15.566406 9.0449219 C 16.145078 8.4662499 16.145078 7.5337501 15.566406 6.9550781 L 9.0449219 0.43359375 C 8.7555859 0.14425774 8.3775992 0 8 0 z M 8.7109375 2.3378906 L 10.123047 2.3378906 L 10.123047 13.345703 L 8.7109375 13.345703 L 8.7109375 8.3457031 L 7.3007812 9.7578125 L 7.3007812 13.345703 L 5.8886719 13.345703 L 5.8886719 9.1835938 L 5.8984375 9.1835938 L 5.8886719 9.1738281 L 8.7109375 6.3496094 L 8.7109375 2.3378906 z "
     transform="scale(0.26458333)"
     id="rect1413"
     inkscape:label="#" />
</svg>
